X:1
T: E minor Samuel Holyoke, 1803
T:Isaac Watts, 1707 (Hymn 9, Book 1)        86. 86. (C. M.)
T:Ryegate Transcribed from The Columbian Repository, 1803.
%%score [ 1 2 3 4 ]
L:1/8
Q:1/4=100
M:2/2
K:G
V:1 treble nm="Tr." snm="Tr."
V:2 treble nm="C." snm="C."
V:3 treble-8 nm="T." snm="T."
V:4 bass nm="B." snm="B."
V:1
"^1.  In  vain we lavish out our lives   To  gather empty  wind;   The choicest blessings earth can yield  Will starve a hungry mind.  Come, and the" G4 B2 B2 | %1
 B2 B2 B2 B2 | B6 B2 | B2 d2 d2 d2 | d8 | ^d4 e2 f2 | B2 e2 B2 B2 | B6 d2 | e2 dc B2 e2 | ^d8 | %10
 B4 B2 B2 | %11
"^1.  Lord shall feed our souls With more substantial meat,  With such as saints in glory love,   With such as angels eat,  With such as angels eat." B2 B2 c2 BA | %12
 G6 d2 | e2 d2 c2 B2 | A8 | B4 B2 B2 | B2 c2 B2 ^A2 | B6 B2 | B2 B2 B2 c2 | B6 B2 | B4 c4 | B4 B4 | %22
 B8 |] %23
V:2
"^2.  Our God will every want supply,   And fill our hearts with peace;  He  gives by  covenant and by oath The richesof his grace.  Come, and he'll" E4 G2 F2 | %1
 G2 G2 F2 E2 | ^D6 E2 | E2 D2 G2 G2 | F8 | F4 G2 F2 | G2 B2 A2 G2 | F6 B2 | B2 A2 G2 G2 | F8 | %10
 G4 G2 G2 | %11
"^2.  cleanse our spotted souls,  And wash away our stains In the dear fountain that his Son Poured from his dying veins, Poured from his dying veins." G2 G2 A2 GF | %12
 G6 G2 | G2 G2 E2 E2 | D8 | D4 A2 G2 | F2 G2 F2 F2 | F6 F2 | E2 ^D2 E2 E2 | ^D6 D2 | E4 E4 | %21
 G4 F4 | E8 |] %23
V:3
"^3.  Our guilt shall vanish all away,  Though black as hell before;   Our sins shall sink beneath the sea,  And shall be found no more.  And, lest pol–" B4 e2 ^d2 | %1
 e2 B2 A2 G2 | F6 F2 | G2 A2 B2 B2 | A8 | B4 B2 ^d2 | e2 g2 f2 e2 | ^d6 f2 | g2 d2 d2 c2 | B8 | %10
 d4 d2 d2 | %11
"^3.  –lution should o'er–spread  Our inward powers again,  His Spirit shall bedew our souls,  Like pu–ri–fy–ing rain,  Like pu–ri – fy – ing     rain." g2 d2 e2 dc | %12
 B6 B2 | c2 B2 A2 G2 | F8 | B4 ^d2 e2 | ^d2 e2 d2 ^c2 | B6 ^d2 | e2 f2 g2 g2 | f6 f2 | g4 f4 | %21
 e4 ^d4 | e8 |] %23
V:4
"^5.  There  shall  his  sacred  Spirit  dwell,   And deep engrave his law,   And  eve –ry  mo–tion  of   our   souls   To swift obedience draw.  Thus will he""^4.  Our heart that flinty stubborn thing,  That terrors cannot move,  That fears no threatenings of his wrath,  Shall be dissolved by love.  Or he can" E,4 E,2 B,,2 | %1
 E,2 E,2 ^D,2 E,2 | B,,6 B,,2 | E,2 F,2 G,2 G,2 | D,8 | B,,4 E,2 B,,2 | E,2 E,2 ^D,2 E,2 | %7
 B,,6 B,,2 | E,2 F,2 G,2 G,2 | B,8 | G,4 G,2 G,2 | %11
"^4.  take  the  flint  away  That would not be refined;  And from the treasures of his grace  Bestow a sof–ter mind,  Bestow   a    sof – ter    mind.""^5.  pour salvation down,  And we shall render praise;  We the dear people of his love,  And he  our God of  grace,   And  he  our God   of     grace." G,2 G,2 C,2 D,2 | %12
 G,6 G,2 | C,2 G,,2 C,2 ^C,2 | D,8 | G,4 F,2 E,2 | B,2 E,2 F,2 F,2 | B,,6 B,,2 | E,2 B,A, G,2 A,2 | %19
 B,6 A,2 | G,4 A,4 | B,4 B,,4 | E,8 |] %23

